packages/icons/svg/Instruction_Hygiene_Cleaned_32px.svg

<svg xmlns="http://www.w3.org/2000/svg" viewBox="0 0 32 32"><path d="M15.24 12.82A2 2 0 0114 11v-.83a3 3 0 002.5 1.35.5.5 0 000-1 2 2 0 01-2-1.58 2 2 0 001.43-1.44H17a.5.5 0 00.5-.5V5a.5.5 0 00-.5-.5h-1.07A2 2 0 0014 3H6a2 2 0 00-2 2v2a2 2 0 002 2 2 2 0 01.74 3.82A5.94 5.94 0 003 18.37V27a2 2 0 002 2h12a2 2 0 002-2v-8.63a5.94 5.94 0 00-3.76-5.55zM6 7V5h8v2h-1a1 1 0 00-1 1v2.5h-2A4 4 0 006 7zm1.5 7.68A4 4 0 0010 11.5h2a4 4 0 002.46 3.18A3.93 3.93 0 0116.75 17H5.25a3.93 3.93 0 012.25-2.32zM17 27H5v-8.63V18h12v.37zM29 15.75a1.25 1.25 0 01-1.25-1.25.25.25 0 00-.5 0A1.25 1.25 0 0126 15.75a.25.25 0 000 .5 1.25 1.25 0 011.25 1.25.25.25 0 00.5 0A1.25 1.25 0 0129 16.25a.25.25 0 000-.5zM29 11a.5.5 0 00-.5-.5 4 4 0 01-4-4 .5.5 0 00-1 0 4 4 0 01-4 4 .5.5 0 000 1 4 4 0 014 4 .5.5 0 001 0 4 4 0 014-4 .5.5 0 00.5-.5zm-5 2.32A5 5 0 0021.68 11 5 5 0 0024 8.68 5 5 0 0026.32 11 5 5 0 0024 13.32z"/></svg>

<svg xmlns="http://www.w3.org/2000/svg" viewBox="0 0 32 32"><defs></defs><g id="Icon"><path  d="M15.24,12.82A2,2,0,0,1,14,11v-.83a3,3,0,0,0,2.5,1.35.5.5,0,0,0,0-1,2,2,0,0,1-2-1.58A2,2,0,0,0,15.93,7.5H17a.5.5,0,0,0,.5-.5V5a.5.5,0,0,0-.5-.5H15.93A2,2,0,0,0,14,3H6A2,2,0,0,0,4,5V7A2,2,0,0,0,6,9a2,2,0,0,1,.74,3.82A5.94,5.94,0,0,0,3,18.37V27a2,2,0,0,0,2,2H17a2,2,0,0,0,2-2V18.37A5.94,5.94,0,0,0,15.24,12.82ZM6,7V5h8V7H13a1,1,0,0,0-1,1v2.5H10A4,4,0,0,0,6,7Zm1.5,7.68A4,4,0,0,0,10,11.5H12a4,4,0,0,0,2.46,3.18A3.93,3.93,0,0,1,16.75,17H5.25A3.93,3.93,0,0,1,7.5,14.68ZM17,27H5V18.37c0-.13,0-.25,0-.37H17c0,.12,0,.24,0,.37Z"/><path  d="M29,15.75a1.25,1.25,0,0,1-1.25-1.25.25.25,0,0,0-.5,0A1.25,1.25,0,0,1,26,15.75a.25.25,0,0,0,0,.5,1.25,1.25,0,0,1,1.25,1.25.25.25,0,0,0,.5,0A1.25,1.25,0,0,1,29,16.25a.25.25,0,0,0,0-.5Z"/><path  d="M29,11a.5.5,0,0,0-.5-.5,4,4,0,0,1-4-4,.5.5,0,0,0-1,0,4,4,0,0,1-4,4,.5.5,0,0,0,0,1,4,4,0,0,1,4,4,.5.5,0,0,0,1,0,4,4,0,0,1,4-4A.5.5,0,0,0,29,11Zm-5,2.32A5,5,0,0,0,21.68,11,5,5,0,0,0,24,8.68,5,5,0,0,0,26.32,11,5,5,0,0,0,24,13.32Z"/></g></svg>
